X: 41
T:Green Groves of Erin, The
R:reel
M:C|
L:1/8
K:Ador
A2 cA eAcA|G2Bd gdBG|A2 cA eAcA|BGEF GABG|
A2 cA eAcA|G2Bd gdBG|A2 cA eAcA|1BGED EFGB:|2BGEF GABd||
ea~a2 ea~a2|eg~g2 eg~g2|eaag ~a3g|(3efg fa gedg|
ea~a2 bgag|egfa ~g3e|dega bgag|1(3efg fa gedg:|2egfa gedB||

